public/img/brands/amazon.svg

<svg width="110" height="33" viewBox="0 0 110 33" fill="none" xmlns="http://www.w3.org/2000/svg">
<g clip-path="url(#clip0)">
<path fill-rule="evenodd" clip-rule="evenodd" d="M67.7764 25.7832C61.4527 30.4589 52.2546 32.9501 44.3212 32.9501C33.2068 32.9501 23.2421 28.8492 15.6537 22.0273C15.0788 21.4907 15.577 20.7626 16.3052 21.1841C24.4685 25.9365 34.5482 28.7726 44.9727 28.7726C51.9863 28.7726 59.7281 27.3162 66.8566 24.2885C67.9297 23.8669 68.8112 25.0167 67.7764 25.7832Z" fill="black"/>
<path fill-rule="evenodd" clip-rule="evenodd" d="M70.4209 22.7555C69.616 21.7207 65.0553 22.2573 63.024 22.5256C62.4108 22.6022 62.2959 22.0657 62.8707 21.6824C66.5117 19.1146 72.4521 19.8811 73.142 20.7243C73.8319 21.5674 72.9504 27.5462 69.5394 30.3823C69.0028 30.8039 68.5046 30.574 68.7346 29.9991C69.5011 28.0828 71.2257 23.8287 70.4209 22.7555Z" fill="black"/>
<path d="M63.139 3.66937V1.17821C63.139 0.794957 63.4073 0.565004 63.7522 0.565004H74.8666C75.2116 0.565004 75.5182 0.833283 75.5182 1.17821V3.28612C75.5182 3.63105 75.2116 4.09095 74.675 4.85746L68.9262 13.0591C71.0724 13.0208 73.3336 13.3274 75.2499 14.4005C75.6715 14.6305 75.7864 15.0137 75.8248 15.3587V18.0031C75.8248 18.3864 75.4415 18.808 75.0199 18.578C71.609 16.7767 67.0482 16.5851 63.2923 18.6163C62.9091 18.808 62.4875 18.4247 62.4875 18.0414V15.512C62.4875 15.1287 62.4875 14.4388 62.9091 13.8256L69.5777 4.28258H63.7905C63.4456 4.28258 63.139 4.0143 63.139 3.66937ZM22.6289 19.1146H19.2563C18.9497 19.0762 18.6814 18.8463 18.6431 18.5397V1.21654C18.6431 0.871608 18.9497 0.60333 19.2946 0.60333H22.4373C22.7822 0.60333 23.0122 0.871609 23.0505 1.17821V3.43942H23.1271C23.932 1.25486 25.5033 0.220075 27.5729 0.220075C29.6808 0.220075 31.0222 1.25486 31.942 3.43942C32.7469 1.25486 34.6248 0.220075 36.6177 0.220075C38.0358 0.220075 39.5688 0.794957 40.5269 2.13635C41.6001 3.59272 41.3701 5.70062 41.3701 7.57858V18.5397C41.3701 18.8846 41.0635 19.1529 40.7186 19.1529H37.3843C37.0393 19.1146 36.771 18.8463 36.771 18.5397V9.34155C36.771 8.61336 36.8477 6.77374 36.6944 6.08388C36.4261 4.93411 35.6979 4.58918 34.7015 4.58918C33.8966 4.58918 33.0151 5.12574 32.6702 6.00723C32.3253 6.88872 32.3636 8.34509 32.3636 9.34155V18.5397C32.3636 18.8846 32.057 19.1529 31.7121 19.1529H28.3394C27.9945 19.1146 27.7262 18.8463 27.7262 18.5397V9.34155C27.7262 7.42527 28.0328 4.55086 25.6566 4.55086C23.2421 4.55086 23.3188 7.3103 23.3188 9.34155V18.5397C23.2805 18.8463 23.0122 19.1146 22.6289 19.1146ZM85.0996 0.220075C90.1202 0.220075 92.8413 4.51253 92.8413 9.99308C92.8413 15.282 89.8519 19.4978 85.0996 19.4978C80.1939 19.4978 77.5111 15.2054 77.5111 9.83978C77.4728 4.43588 80.1939 0.220075 85.0996 0.220075ZM85.0996 3.78435C82.6084 3.78435 82.4551 7.19532 82.4551 9.30322C82.4551 11.4111 82.4168 15.9335 85.0612 15.9335C87.6674 15.9335 87.8207 12.2926 87.8207 10.0697C87.8207 8.61336 87.744 6.85039 87.3224 5.47067C86.9392 4.24425 86.1727 3.78435 85.0996 3.78435ZM99.3183 19.1146H95.9457C95.6008 19.0762 95.3325 18.808 95.3325 18.5013V1.13989C95.3708 0.833283 95.6391 0.565004 95.984 0.565004H99.1267C99.4333 0.565004 99.6633 0.794957 99.7399 1.06324V3.7077H99.8166C100.775 1.33151 102.078 0.220075 104.416 0.220075C105.91 0.220075 107.405 0.756632 108.363 2.25133C109.245 3.63105 109.245 5.9689 109.245 7.65523V18.578C109.206 18.8846 108.938 19.1146 108.593 19.1146H105.22C104.914 19.0762 104.646 18.8463 104.607 18.578V9.14992C104.607 7.23365 104.837 4.47421 102.499 4.47421C101.695 4.47421 100.928 5.01076 100.545 5.85393C100.085 6.92704 100.008 7.96183 100.008 9.14992V18.5013C99.9699 18.8463 99.6633 19.1146 99.3183 19.1146ZM57.6968 19.0762C57.4668 19.2679 57.1602 19.3062 56.892 19.1529C55.7805 18.2331 55.5506 17.7732 54.9374 16.8917C53.0977 18.7696 51.7563 19.3445 49.3801 19.3445C46.5441 19.3445 44.3212 17.5815 44.3212 14.0939C44.3212 11.3345 45.8159 9.49485 47.9238 8.57504C49.7634 7.7702 52.3312 7.6169 54.2858 7.38695V6.96537C54.2858 6.16053 54.3625 5.20239 53.8642 4.51253C53.4427 3.89933 52.6761 3.63105 51.9863 3.63105C50.6832 3.63105 49.5334 4.28258 49.2652 5.6623C49.1885 5.9689 48.9969 6.27551 48.6903 6.27551L45.4326 5.93058C45.1643 5.85393 44.8577 5.6623 44.9344 5.24072C45.7009 1.25486 49.2652 0.0667725 52.4845 0.0667725C54.1325 0.0667725 56.2787 0.488353 57.5818 1.7531C59.2298 3.28612 59.0765 5.35569 59.0765 7.57858V12.8292C59.0765 14.4005 59.728 15.0904 60.3413 15.9719C60.5712 16.2785 60.6095 16.6617 60.3413 16.8534C59.6131 17.4282 58.3866 18.5013 57.6968 19.0762ZM54.2858 10.8362V10.1081C51.833 10.1081 49.2652 10.6446 49.2652 13.519C49.2652 14.9754 50.0317 15.9719 51.3348 15.9719C52.2929 15.9719 53.1361 15.397 53.6726 14.4388C54.3241 13.2508 54.2858 12.1393 54.2858 10.8362ZM12.5876 19.1529C11.4762 18.2331 11.2462 17.7732 10.633 16.8917C8.7934 18.7696 7.452 19.3445 5.07582 19.3445C2.23973 19.3445 0.0168457 17.5815 0.0168457 14.0939C0.0168457 11.3345 1.51154 9.49485 3.61945 8.57504C5.45907 7.7702 8.02688 7.6169 9.98149 7.38695V6.96537C9.98149 6.16053 10.0581 5.20239 9.55991 4.51253C9.13833 3.89933 8.37181 3.63105 7.68195 3.63105C6.37889 3.63105 5.22912 4.28258 4.96084 5.6623C4.88419 5.9689 4.69256 6.27551 4.38596 6.27551L1.12829 5.93058C0.860008 5.85393 0.553403 5.6623 0.630054 5.24072C1.39657 1.25486 4.96084 0.0667725 8.18019 0.0667725C9.82819 0.0667725 11.9744 0.488353 13.2775 1.7531C14.9255 3.28612 14.7722 5.35569 14.7722 7.57858V12.8292C14.7722 14.4005 15.4237 15.0904 16.0369 15.9719C16.2669 16.2785 16.3052 16.6617 16.0369 16.8534C15.3087 17.4282 14.0823 18.5013 13.3925 19.0762C13.1625 19.2679 12.8559 19.3062 12.5876 19.1529ZM10.0198 10.8362V10.1081C7.56698 10.1081 4.99917 10.6446 4.99917 13.519C4.99917 14.9754 5.76568 15.9719 7.06875 15.9719C8.02688 15.9719 8.87005 15.397 9.4066 14.4388C10.0581 13.2508 10.0198 12.1393 10.0198 10.8362Z" fill="black"/>
</g>
<defs>
<clipPath id="clip0">
<rect width="109.272" height="33" fill="white"/>
</clipPath>
</defs>
</svg>

<?xml version="1.0" encoding="UTF-8"?>
<svg fill="none" viewBox="0 0 110 33" xmlns="http://www.w3.org/2000/svg">
<g clip-path="url(#a)" fill="#000">
<path d="m67.776 25.783c-6.3237 4.6757-15.522 7.1669-23.455 7.1669-11.114 0-21.079-4.1009-28.668-10.923-0.5749-0.5366-0.0767-1.2647 0.6515-0.8432 8.1633 4.7524 18.243 7.5885 28.668 7.5885 7.0136 0 14.755-1.4564 21.884-4.4841 1.0731-0.4216 1.9546 0.7282 0.9198 1.4947z" clip-rule="evenodd" fill-rule="evenodd"/>
<path d="m70.421 22.756c-0.8049-1.0348-5.3656-0.4982-7.3969-0.2299-0.6132 0.0766-0.7281-0.4599-0.1533-0.8432 3.641-2.5678 9.5814-1.8013 10.271-0.9581 0.6899 0.8431-0.1916 6.8219-3.6026 9.658-0.5366 0.4216-1.0348 0.1917-0.8048-0.3832 0.7665-1.9163 2.4911-6.1704 1.6863-7.2436z" clip-rule="evenodd" fill-rule="evenodd"/>
<path d="m63.139 3.6694v-2.4912c0-0.38325 0.2683-0.61321 0.6132-0.61321h11.114c0.345 0 0.6516 0.26828 0.6516 0.61321v2.1079c0 0.34493-0.3066 0.80483-0.8432 1.5713l-5.7488 8.2016c2.1462-0.0383 4.4074 0.2683 6.3237 1.3414 0.4216 0.23 0.5365 0.6132 0.5749 0.9582v2.6444c0 0.3833-0.3833 0.8049-0.8049 0.5749-3.4109-1.8013-7.9717-1.9929-11.728 0.0383-0.3832 0.1917-0.8048-0.1916-0.8048-0.5749v-2.5294c0-0.3833 0-1.0732 0.4216-1.6864l6.6686-9.543h-5.7872c-0.3449 0-0.6515-0.26828-0.6515-0.61321zm-40.51 15.445h-3.3726c-0.3066-0.0384-0.5749-0.2683-0.6132-0.5749v-17.323c0-0.34493 0.3066-0.61321 0.6515-0.61321h3.1427c0.3449 0 0.5749 0.26828 0.6132 0.57488v2.2612h0.0766c0.8049-2.1846 2.3762-3.2193 4.4458-3.2193 2.1079 0 3.4493 1.0348 4.3691 3.2193 0.8049-2.1846 2.6828-3.2193 4.6757-3.2193 1.4181 0 2.9511 0.57488 3.9092 1.9163 1.0732 1.4564 0.8432 3.5643 0.8432 5.4422v10.961c0 0.3449-0.3066 0.6132-0.6515 0.6132h-3.3343c-0.345-0.0383-0.6133-0.3066-0.6133-0.6132v-9.1982c0-0.72819 0.0767-2.5678-0.0766-3.2577-0.2683-1.1498-0.9965-1.4947-1.9929-1.4947-0.8049 0-1.6864 0.53656-2.0313 1.418s-0.3066 2.3379-0.3066 3.3343v9.1982c0 0.3449-0.3066 0.6132-0.6515 0.6132h-3.3727c-0.3449-0.0383-0.6132-0.3066-0.6132-0.6132v-9.1982c0-1.9163 0.3066-4.7907-2.0696-4.7907-2.4145 0-2.3378 2.7594-2.3378 4.7907v9.1982c-0.0383 0.3066-0.3066 0.5749-0.6899 0.5749zm62.471-18.895c5.0206 0 7.7417 4.2925 7.7417 9.773 0 5.2889-2.9894 9.5047-7.7417 9.5047-4.9057 0-7.5885-4.2924-7.5885-9.658-0.0383-5.4039 2.6828-9.6197 7.5885-9.6197zm0 3.5643c-2.4912 0-2.6445 3.411-2.6445 5.5189 0 2.1079-0.0383 6.6303 2.6061 6.6303 2.6062 0 2.7595-3.6409 2.7595-5.8638 0-1.4563-0.0767-3.2193-0.4983-4.599-0.3832-1.2264-1.1497-1.6863-2.2228-1.6863zm14.219 15.33h-3.3726c-0.3449-0.0384-0.6132-0.3066-0.6132-0.6133v-17.361c0.0383-0.30661 0.3066-0.57489 0.6515-0.57489h3.1427c0.3066 0 0.5366 0.22995 0.6132 0.49824v2.6445h0.0767c0.9584-2.3762 2.2614-3.4876 4.5994-3.4876 1.494 0 2.989 0.53656 3.947 2.0313 0.882 1.3797 0.882 3.7176 0.882 5.4039v10.923c-0.039 0.3066-0.307 0.5366-0.652 0.5366h-3.373c-0.306-0.0384-0.574-0.2683-0.613-0.5366v-9.4281c0-1.9163 0.23-4.6757-2.108-4.6757-0.804 0-1.571 0.53655-1.954 1.3797-0.46 1.0731-0.537 2.1079-0.537 3.296v9.3514c-0.0381 0.345-0.3447 0.6133-0.6897 0.6133zm-41.622-0.0384c-0.23 0.1917-0.5366 0.23-0.8048 0.0767-1.1115-0.9198-1.3414-1.3797-1.9546-2.2612-1.8397 1.8779-3.1811 2.4528-5.5573 2.4528-2.836 0-5.0589-1.763-5.0589-5.2506 0-2.7594 1.4947-4.599 3.6026-5.5189 1.8396-0.80484 4.4074-0.95814 6.362-1.1881v-0.42158c0-0.80484 0.0767-1.763-0.4216-2.4528-0.4215-0.6132-1.1881-0.88148-1.8779-0.88148-1.3031 0-2.4529 0.65153-2.7211 2.0312-0.0767 0.3066-0.2683 0.61321-0.5749 0.61321l-3.2577-0.34493c-0.2683-0.07665-0.5749-0.26828-0.4982-0.68986 0.7665-3.9859 4.3308-5.1739 7.5501-5.1739 1.648 0 3.7942 0.42158 5.0973 1.6863 1.648 1.533 1.4947 3.6026 1.4947 5.8255v5.2506c0 1.5713 0.6515 2.2612 1.2648 3.1427 0.2299 0.3066 0.2682 0.6898 0 0.8815-0.7282 0.5748-1.9547 1.6479-2.6445 2.2228zm-3.411-8.24v-0.7281c-2.4528 0-5.0206 0.5365-5.0206 3.4109 0 1.4564 0.7665 2.4529 2.0696 2.4529 0.9581 0 1.8013-0.5749 2.3378-1.5331 0.6515-1.188 0.6132-2.2995 0.6132-3.6026zm-41.698 8.3167c-1.1114-0.9198-1.3414-1.3797-1.9546-2.2612-1.8396 1.8779-3.181 2.4528-5.5572 2.4528-2.8361 0-5.059-1.763-5.059-5.2506 0-2.7594 1.4947-4.599 3.6026-5.5189 1.8396-0.80484 4.4074-0.95814 6.362-1.1881v-0.42158c0-0.80484 0.07661-1.763-0.42158-2.4528-0.42158-0.6132-1.1881-0.88148-1.878-0.88148-1.3031 0-2.4528 0.65153-2.7211 2.0312-0.07665 0.3066-0.26828 0.61321-0.57488 0.61321l-3.2577-0.34493c-0.26828-0.07665-0.57489-0.26828-0.49824-0.68986 0.76652-3.9859 4.3308-5.1739 7.5501-5.1739 1.648 0 3.7942 0.42158 5.0973 1.6863 1.648 1.533 1.4947 3.6026 1.4947 5.8255v5.2506c0 1.5713 0.6515 2.2612 1.2647 3.1427 0.23 0.3066 0.2683 0.6898 0 0.8815-0.7282 0.5748-1.9546 1.6479-2.6444 2.2228-0.23 0.1917-0.5366 0.23-0.8049 0.0767zm-2.5678-8.3167v-0.7281c-2.4528 0-5.0206 0.5365-5.0206 3.4109 0 1.4564 0.76651 2.4529 2.0696 2.4529 0.95813 0 1.8013-0.5749 2.3378-1.5331 0.6515-1.188 0.6132-2.2995 0.6132-3.6026z"/>
</g>
<defs>
<clipPath id="a">
<rect width="109.27" height="33" fill="#fff"/>
</clipPath>
</defs>
</svg>
